src/assets/filled/Grid1.svg

<svg width="24" height="24" viewBox="0 0 24 24"  xmlns="http://www.w3.org/2000/svg">
<path d="M7.75 2V7.8H2C2 4.19 4.15 2.02 7.75 2Z" />
<path d="M22 7.8H16.25V2C19.85 2.02 22 4.19 22 7.8Z" />
<path d="M22 16.2998C21.96 19.8498 19.82 21.9798 16.25 21.9998V16.2998H22Z" />
<path d="M7.75 16.2998V21.9998C4.18 21.9798 2.04 19.8498 2 16.2998H7.75Z" />
<path d="M7.75 9.2998H2V14.7998H7.75V9.2998Z" />
<path d="M22 9.2998H16.25V14.7998H22V9.2998Z" />
<path d="M14.75 9.2998H9.25V14.7998H14.75V9.2998Z" />
<path d="M14.75 2H9.25V7.8H14.75V2Z" />
<path d="M14.75 16.2998H9.25V21.9998H14.75V16.2998Z" />
</svg>

<?xml version="1.0" encoding="UTF-8"?>
<svg width="24" height="24" viewBox="0 0 24 24" xmlns="http://www.w3.org/2000/svg">
 <path d="M7.75 2V7.8H2C2 4.19 4.15 2.02 7.75 2Z"/>
 <path d="M22 7.8H16.25V2C19.85 2.02 22 4.19 22 7.8Z"/>
 <path d="m22 16.3c-0.04 3.55-2.18 5.68-5.75 5.7v-5.7h5.75z"/>
 <path d="m7.75 16.3v5.7c-3.57-0.02-5.71-2.15-5.75-5.7h5.75z"/>
 <path d="m7.75 9.2998h-5.75v5.5h5.75v-5.5z"/>
 <path d="m22 9.2998h-5.75v5.5h5.75v-5.5z"/>
 <path d="m14.75 9.2998h-5.5v5.5h5.5v-5.5z"/>
 <path d="M14.75 2H9.25V7.8H14.75V2Z"/>
 <path d="m14.75 16.3h-5.5v5.7h5.5v-5.7z"/>
</svg>
